src/lib/packages/icons/src/assets/filled/face-surprise.svg

<svg xmlns="http://www.w3.org/2000/svg" width="24" height="24" fill="none"><path fill="currentColor" d="M12.02 2c-5.52 0-10 4.48-10 10s4.48 10 10 10 10-4.48 10-10-4.48-10-10-10ZM9 11.75c-.72 0-1.25-.74-1.25-1.75S8.28 8.25 9 8.25s1.25.74 1.25 1.75-.53 1.75-1.25 1.75ZM12 18c-1.1 0-2-.9-2-2s.9-2 2-2 2 .9 2 2-.9 2-2 2Zm3-6.25c-.72 0-1.25-.74-1.25-1.75s.53-1.75 1.25-1.75 1.25.74 1.25 1.75-.53 1.75-1.25 1.75Z"/></svg>

<svg width="24" height="24" viewBox="0 0 24 24" fill="none" xmlns="http://www.w3.org/2000/svg">
<path d="M12.02 2C6.50002 2 2.02002 6.48 2.02002 12C2.02002 17.52 6.50002 22 12.02 22C17.54 22 22.02 17.52 22.02 12C22.02 6.48 17.54 2 12.02 2ZM9 11.75C8.28 11.75 7.75 11.01 7.75 10C7.75 8.99 8.28 8.25 9 8.25C9.72 8.25 10.25 8.99 10.25 10C10.25 11.01 9.72 11.75 9 11.75ZM12 18C10.9 18 10 17.1 10 16C10 14.9 10.9 14 12 14C13.1 14 14 14.9 14 16C14 17.1 13.1 18 12 18ZM15 11.75C14.28 11.75 13.75 11.01 13.75 10C13.75 8.99 14.28 8.25 15 8.25C15.72 8.25 16.25 8.99 16.25 10C16.25 11.01 15.72 11.75 15 11.75Z" fill="currentColor"/>
</svg>
